!!!COM: Vivaldi, Antonio Lucio
!!!CDT: 1678/03/04-1741/08/28
!!!OPR: 12 Sonatas for Violin and Basso continuo
!!!OTL: Sonata in A minor, op. @{OPS}, no. @{ONM} (@{SCT})
!!!OPS: 2
!!!ONM: 12
!!!OMV: 2. Capriccio
!!!SCT: RV 32
!!!SCA: Antonio Vivaldi: Thematisch-systematisches Verzeichnis seiner Werke (Ryom-Verzeichnis)
!!!OMD: Presto
!!!key: a
**kern	**dynam	**fb	**kern	**dynam
*part2	*	*	*part1	*
*staff2	*	*	*staff1	*
*ICklav	*	*	*ICstr	*
*Icemba	*	*	*Ivioln	*
*I"Basso continuo	*	*	*I"Violino	*
*I'bc	*	*	*I'v	*
*clefF4	*	*	*clefG2	*
*k[]	*	*	*k[]	*
*a:	*	*	*a:	*
*M4/4	*	*	*M4/4	*
*met(c)	*	*	*met(c)	*
*MM144	*	*	*MM144	*
=1	=1	=1	=1	=1
8AA\L	.	.	16r	.
.	.	.	16ee\LL	.
8A\J	.	.	16aa\	.
.	.	.	16ccc\JJ	.
8G#X\L	.	6	16bb\LL	.
.	.	.	16ee\	.
8E\J	.	.	16bb\	.
.	.	.	16ddd\JJ	.
8A\L	.	.	16ccc\LL	.
.	.	.	16ee\	.
8AA\J	.	.	16aa\	.
.	.	.	16ccc\JJ	.
8GG#X/L	.	6	16bb\LL	.
.	.	.	16ee\	.
8EE/J	.	.	16bb\	.
.	.	.	16ddd\JJ	.
=2	=2	=2	=2	=2
8AA\L	.	.	16ccc\LL	.
.	.	.	16ee\	.
8A\J	.	.	16aa\	.
.	.	.	16ccc\JJ	.
8G#X\L	.	6	16bb\LL	.
.	.	.	16ee\	.
8E\J	.	.	16bb\	.
.	.	.	16ddd\JJ	.
8A\L	.	.	16ccc\LL	.
.	.	.	16ee\	.
8AA\J	.	.	16aa\	.
.	.	.	16ccc\JJ	.
8GG#X/L	.	6	16bb\LL	.
.	.	.	16ee\	.
8EE/J	.	.	16bb\	.
.	.	.	16ddd\JJ	.
=3	=3	=3	=3	=3
8AA\L	.	.	16ccc\LL	.
.	.	.	16aa\	.
8A\J	.	.	16bb\	.
.	.	.	16ccc\JJ	.
8B\L	.	6	16ddd\LL	.
.	.	.	16bb\	.
8BB\J	.	.	16ccc\	.
.	.	.	16ddd\JJ	.
8C\L	.	.	8eee\L	.
8c\	.	.	8ee\J	.
8d\	.	.	4r	.
8D\J	.	.	.	.
!!LO:LB:g=original
=4	=4	=4	=4	=4
8e\L	.	#	16r	.
.	.	.	16ee\LL	.
8E\J	.	.	16gg#X\	.
.	.	.	16bb\JJ	.
8D\L	.	6 4#| 2	16gg#y\LL	.
.	.	.	16ee\	.
8d\J	.	.	16gg#y\	.
.	.	.	16bb\JJ	.
8c#X\L	.	6	16aa\LL	.
.	.	.	16cc#X\	.
8C#X\J	.	.	16ee\	.
.	.	.	16aa\JJ	.
8C#y\L	.	.	16ee\LL	.
.	.	.	16cc#y\	.
8c#y\J	.	.	16ee\	.
.	.	.	16aa\JJ	.
=5	=5	=5	=5	=5
8d\L	.	#	16ff#X\LL	.
.	.	.	16dd\	.
8D\J	.	.	16ff#y\	.
.	.	.	16aa\JJ	.
8Cn\L	.	6 4#| 2	16ff#y\LL	.
.	.	.	16dd\	.
8c\J	.	.	16ff#y\	.
.	.	.	16aa\JJ	.
8B\L	.	6	16gg\LL	.
.	.	.	16b\	.
8BB\J	.	.	16dd\	.
.	.	.	16gg\JJ	.
8BB\L	.	.	16dd\LL	.
.	.	.	16b\	.
8B\J	.	.	16dd\	.
.	.	.	16gg\JJ	.
=6	=6	=6	=6	=6
8c\L	.	.	16ee\LL	.
.	.	.	16cc\	.
8C\J	.	.	16ee\	.
.	.	.	16gg\JJ	.
8C\L	.	6	16ee\LL	.
.	.	.	16cc\	.
8c\J	.	.	16ee\	.
.	.	.	16aa\JJ	.
8d\L	.	#	16ff#X\LL	.
.	.	.	16dd\	.
8D\J	.	.	16ff#y\	.
.	.	.	16aa\JJ	.
8D\L	.	6	16bb\LL	.
.	.	.	16dd\	.
8d\J	.	.	16ff#y\	.
.	.	.	16bb\JJ	.
=7	=7	=7	=7	=7
8e\L	.	#	16gg#X\LL	.
.	.	.	16b\	.
8d\J	.	.	16ee\	.
.	.	.	16gg#y\JJ	.
8c\L	.	6	16aa\LL	.
.	.	.	16cc\	.
8A\J	.	.	16ee\	.
.	.	.	16aa\JJ	.
8e\L	.	5 4	16aa\LL	.
.	.	.	16b\	.
8E\J	.	.	16ee\	.
.	.	.	16aa\JJ	.
8e\L	.	#	16gg#y\LL	.
.	.	.	16b\	.
8E\J	.	.	16ee\	.
.	.	.	16gg#y\JJ	.
!!LO:LB:g=original
=8	=8	=8	=8	=8
8AA\L	.	.	16aa\LL	.
.	.	.	16ee\	.
8A\J	.	.	16aa\	.
.	.	.	16ccc\JJ	.
8G#X\L	.	6	16bb\LL	.
.	.	.	16ee\	.
8E\J	.	.	16bb\	.
.	.	.	16ddd\JJ	.
8A\L	.	.	16ccc\LL	.
.	.	.	16ee\	.
8AA\J	.	.	16aa\	.
.	.	.	16ccc\JJ	.
8GG#X/L	.	6	16bb\LL	.
.	.	.	16ee\	.
8EE/J	.	.	16bb\	.
.	.	.	16ddd\JJ	.
=9	=9	=9	=9	=9
8AA\L	.	.	16ccc\LL	.
.	.	.	16ee\	.
8A\J	.	.	16aa\	.
.	.	.	16ccc\JJ	.
8G#X\L	.	6	16bb\LL	.
.	.	.	16ee\	.
8E\J	.	.	16bb\	.
.	.	.	16ddd\JJ	.
8A\L	.	.	16ccc\LL	.
.	.	.	16ee\	.
8AA\J	.	.	16aa\	.
.	.	.	16ccc\JJ	.
8GG#X/L	.	6	16bb\LL	.
.	.	.	16ee\	.
8EE/J	.	.	16bb\	.
.	.	.	16ddd\JJ	.
=10	=10	=10	=10	=10
8AA\L	.	.	16ccc\LL	.
.	.	.	16aa\	.
8A\J	.	.	16bb\	.
.	.	.	16ccc\JJ	.
8B\L	.	6	16ddd\LL	.
.	.	.	16bb\	.
8BB\J	.	.	16ccc\	.
.	.	.	16ddd\JJ	.
8C\L	.	.	8eee\L	.
8c\	.	.	8ee\J	.
8d\	.	.	4r	.
8D\J	.	.	.	.
*clefC4	*	*	*	*
=11	=11	=11	=11	=11
8e\L	.	#	16r	.
.	.	.	16gg#X\LL	.
8E\J	.	.	16bb\	.
.	.	.	16eee\JJ	.
8E\L	.	.	16bb\LL	.
.	.	.	16gg#y\	.
8e\J	.	.	16bb\	.
.	.	.	16eee\JJ	.
8a\L	.	#	16ccc#X\LL	.
.	.	.	16aa\	.
8A\J	.	.	16ccc#y\	.
.	.	.	16eee\JJ	.
8G\L	.	4#| 2	16ccc#y\LL	.
.	.	.	16aa\	.
8g\J	.	.	16ccc#y\	.
.	.	.	16eee\JJ	.
!!LO:LB:g=original
=12	=12	=12	=12	=12
8f#X\L	.	6	16ddd\LL	.
.	.	.	16ff#X\	.
8F#X\J	.	.	16aa\	.
.	.	.	16ddd\JJ	.
8F#y\L	.	.	16aa\LL	.
.	.	.	16ff#y\	.
8f#y\J	.	.	16aa\	.
.	.	.	16ddd\JJ	.
8g\L	.	.	16bb\LL	.
.	.	.	16gg\	.
8G\J	.	.	16bb\	.
.	.	.	16ddd\JJ	.
8Fn\L	.	4 2	16bb\LL	.
.	.	.	16gg\	.
8f\J	.	.	16bb\	.
.	.	.	16ddd\JJ	.
=13	=13	=13	=13	=13
8e\L	.	6	16ccc\LL	.
.	.	.	16ee\	.
8E\J	.	.	16gg\	.
.	.	.	16ccc\JJ	.
8E\L	.	.	16gg\LL	.
.	.	.	16ee\	.
8e\J	.	.	16gg\	.
.	.	.	16ccc\JJ	.
8f#X\L	.	5	16aa\LL	.
.	.	.	16ff#X\	.
8F#X\J	.	.	16aa\	.
.	.	.	16ccc\JJ	.
8E\L	.	4 2#|	16aa\LL	.
.	.	.	16ff#y\	.
8e\J	.	.	16aa\	.
.	.	.	16ccc\JJ	.
=14	=14	=14	=14	=14
8d#X\L	.	6	16bb\LL	.
.	.	.	16dd#X\	.
8D#X\J	.	.	16ff#X\	.
.	.	.	16bb\JJ	.
8D#y\L	.	.	16ff#y\LL	.
.	.	.	16dd#y\	.
8d#y\J	.	.	16ff#y\	.
.	.	.	16bb\JJ	.
8e\L	.	#	16gg#X\LL	.
.	.	.	16ee\	.
8E\J	.	.	16gg#y\	.
.	.	.	16bb\JJ	.
8Dn\L	.	4#| 2	16gg#y\LL	.
.	.	.	16ee\	.
8d\J	.	.	16gg#y\	.
.	.	.	16bb\JJ	.
*clefF4	*	*	*	*
!!LO:LB:g=original
=15	=15	=15	=15	=15
8c\L	.	6	(16aa\LL	.
.	.	.	16ggn\	.
8C\J	.	.	16aa\)	.
.	.	.	16bb\JJ	.
8BB\L	.	6	(16gg\LL	.
.	.	.	16ff#X\	.
8B\J	.	.	16gg\)	.
.	.	.	16aa\JJ	.
8A\L	.	6#/	(16ff#y\LL	.
.	.	.	16ee\	.
8AA\J	.	.	16ff#y\)	.
.	.	.	16gg\JJ	.
8AA\L	.	5	(16ee\LL	.
.	.	.	16dd#X\	.
8A\J	.	.	16ee\)	.
.	.	.	16ff#y\JJ	.
=16	=16	=16	=16	=16
8B\L	.	#	16dd#X\LL	.
.	.	.	16b\	.
8A\J	.	.	16dd#y\	.
.	.	.	16b\JJ	.
8G\L	.	6	16ee\LL	.
.	.	.	16g\	.
8E\J	.	.	16b\	.
.	.	.	16ee\JJ	.
8A\L	.	6#/ 5	16ee\LL	.
.	.	.	16f#X\	.
8F#X\J	.	.	16a\	.
.	.	.	16ee\JJ	.
8B\L	.	#	16dd#y/LL	.
.	.	.	16f#y/	.
8BB\J	.	.	16a/	.
.	.	.	16dd#y/JJ	.
=17	=17	=17	=17	=17
8E\L	.	.	16ee\LL	.
.	.	.	16b\	.
8e\J	.	.	16ee\	.
.	.	.	16gg\JJ	.
8d#X\L	.	6	16ff#X\LL	.
.	.	.	16b\	.
8B\J	.	.	16ff#y\	.
.	.	.	16aa\JJ	.
8e\L	.	.	16gg\LL	.
.	.	.	16b\	.
8E\J	.	.	16ee\	.
.	.	.	16gg\JJ	.
8D#X/L	.	6	16ff#y\LL	.
.	.	.	16b\	.
8BB/J	.	.	16ff#y\	.
.	.	.	16aa\JJ	.
=18	=18	=18	=18	=18
8E\L	.	.	16gg\LL	.
.	.	.	16b\	.
8e\J	.	.	16ee\	.
.	.	.	16gg\JJ	.
8d#X\L	.	6	16ff#X\LL	.
.	.	.	16b\	.
8B\J	.	.	16ff#y\	.
.	.	.	16aa\JJ	.
8e\L	.	.	16gg\LL	.
.	.	.	16b\	.
8E\J	.	.	16ee\	.
.	.	.	16gg\JJ	.
8D#X/L	.	6	16ff#y\LL	.
.	.	.	16b\	.
8BB/J	.	.	16ff#y\	.
.	.	.	16aa\JJ	.
!!LO:LB:g=original
=19	=19	=19	=19	=19
8E\L	.	.	16gg\LL	.
.	.	.	16ee\	.
8e\J	.	.	16ff#X\	.
.	.	.	16gg\JJ	.
8f#X\L	.	6#/	16aa\LL	.
.	.	.	16ff#y\	.
8F#y\J	.	.	16gg\	.
.	.	.	16aa\JJ	.
8G\L	.	.	8bb\L	.
8g\	.	.	8b\J	.
8f#y\	.	6#/	4r	.
8e\J	.	.	.	.
=20	=20	=20	=20	=20
8d#X\L	.	6	16r	.
.	.	.	16dd#X\LL	.
8B\J	.	.	16ff#X\	.
.	.	.	16bb\JJ	.
8BB\L	.	#	16ff#y\LL	.
.	.	.	16dd#y\	.
8d#y\J	.	.	16ff#y\	.
.	.	.	16bb\JJ	.
8e\L	.	#	16gg#X\LL	.
.	.	.	16ee\	.
8E\J	.	.	16gg#y\	.
.	.	.	16bb\JJ	.
8Dn\L	.	4#| 2	16gg#y\LL	.
.	.	.	16ee\	.
8d\J	.	.	16gg#y\	.
.	.	.	16bb\JJ	.
=21	=21	=21	=21	=21
8c#X\L	.	6	16aa\LL	.
.	.	.	16cc#X\	.
8C#X\J	.	.	16ee\	.
.	.	.	16aa\JJ	.
8C#y\L	.	.	16ee\LL	.
.	.	.	16cc#y\	.
8c#y\J	.	.	16ee\	.
.	.	.	16aa\JJ	.
8d\L	.	#	16ff#X\LL	.
.	.	.	16dd\	.
8D\J	.	.	16ff#y\	.
.	.	.	16aa\JJ	.
8Cn\L	.	4#| 2	16ff#y\LL	.
.	.	.	16dd\	.
8c\J	.	.	16ff#y\	.
.	.	.	16aa\JJ	.
=22	=22	=22	=22	=22
8B\L	.	6	16gg\LL	.
.	.	.	16b\	.
8BB\J	.	.	16dd\	.
.	.	.	16gg\JJ	.
8BB\L	.	.	16dd\LL	.
.	.	.	16b\	.
8B\J	.	.	16dd\	.
.	.	.	16gg\JJ	.
8c\L	.	.	16ee\LL	.
.	.	.	16cc\	.
8C\J	.	.	16ee\	.
.	.	.	16gg\JJ	.
8BB\L	.	4 2	16ee\LL	.
.	.	.	16cc\	.
8B\J	.	.	16ee\	.
.	.	.	16gg\JJ	.
!!LO:LB:g=original
=23	=23	=23	=23	=23
8A\L	.	6	16ff\LL	.
.	.	.	16cc\	.
8AA\J	.	.	16ff\	.
.	.	.	16aa\JJ	.
8AA\L	.	.	16ff\LL	.
.	.	.	16cc\	.
8A\J	.	.	16ff\	.
.	.	.	16aa\JJ	.
8G\L	.	7	16ff\LL	.
.	.	.	16b\	.
8GG\J	.	.	16ff\	.
.	.	.	16gg\JJ	.
8GG\L	.	.	16ff\LL	.
.	.	.	16b\	.
8B\J	.	.	16ff\	.
.	.	.	16gg\JJ	.
=24	=24	=24	=24	=24
8c\L	.	4	16ff\LL	.
.	.	.	16cc\	.
8C\J	.	.	16ff\	.
.	.	.	16gg\JJ	.
8C\L	.	.	16ff\LL	.
.	.	.	16cc\	.
8c\J	.	.	16ff\	.
.	.	.	16gg\JJ	.
8c\L	.	3	16ee\LL	.
.	.	.	16cc\	.
8C\J	.	.	16ee\	.
.	.	.	16gg\JJ	.
8C\L	.	.	16ee\LL	.
.	.	.	16cc\	.
8c\J	.	.	16ee\	.
.	.	.	16gg\JJ	.
=25	=25	=25	=25	=25
8c\L	.	.	16ccc\LL	.
.	.	.	16ee\	.
8C\J	.	.	16ccc\	.
.	.	.	16ee\JJ	.
8C\L	.	.	16ccc\LL	.
.	.	.	16ee\	.
8E\J	.	.	16ccc\	.
.	.	.	16ee\JJ	.
8F/L	.	6 5	16dd\LL	.
.	.	.	16ccc\	.
8FF/J	.	.	16dd\	.
.	.	.	16ccc\JJ	.
8G/L	.	5 3	16dd\LL	.
.	.	.	16bb\	.
8GG/J	.	.	16dd\	.
.	.	.	16bb\JJ	.
=26	=26	=26	=26	=26
8C\L	.	.	16ccc\LL	.
.	.	.	16g\	.
8c\J	.	.	16cc\	.
.	.	.	16ee\JJ	.
8B\L	.	6	16dd\LL	.
.	.	.	16g\	.
8G\J	.	.	16dd\	.
.	.	.	16ff\JJ	.
8c\L	.	.	16ee\LL	.
.	.	.	16g\	.
8C\J	.	.	16cc\	.
.	.	.	16ee\JJ	.
8BB/L	.	6	16dd\LL	.
.	.	.	16g\	.
8GG/J	.	.	16dd\	.
.	.	.	16ff\JJ	.
!!LO:LB:g=original
=27	=27	=27	=27	=27
8C\L	.	.	16ee\LL	.
.	.	.	16g\	.
8c\J	.	.	16cc\	.
.	.	.	16ee\JJ	.
8B\L	.	6	16dd\LL	.
.	.	.	16g\	.
8G\J	.	.	16dd\	.
.	.	.	16ff\JJ	.
8c\L	.	.	16ee\LL	.
.	.	.	16g\	.
8C\J	.	.	16cc\	.
.	.	.	16ee\JJ	.
8BB/L	.	6	16dd\LL	.
.	.	.	16g\	.
8GG/J	.	.	16dd\	.
.	.	.	16ff\JJ	.
=28	=28	=28	=28	=28
8C\L	.	.	16ee\LL	.
.	.	.	16cc\	.
8c\J	.	.	16dd\	.
.	.	.	16ee\JJ	.
8d\L	.	.	16ff\LL	.
.	.	.	16dd\	.
8D\J	.	.	16ee\	.
.	.	.	16ff\JJ	.
8e\L	.	.	8gg\L	.
8E\	.	.	8g\J	.
8F#X\	.	6	4r	.
8f#X\J	.	.	.	.
=29	=29	=29	=29	=29
8g\L	.	.	16r	.
.	.	.	16dd\LL	.
8G\J	.	.	16gg\	.
.	.	.	16bb\JJ	.
8Fn\L	.	6 4 2	16gg\LL	.
.	.	.	16dd\	.
8f\J	.	.	16gg\	.
.	.	.	16bb\JJ	.
8e\L	.	6	16ccc\LL	.
.	.	.	16ee\	.
8E\J	.	.	16gg\	.
.	.	.	16ccc\JJ	.
8E\L	.	.	16gg\LL	.
.	.	.	16ee\	.
8e\J	.	.	16gg\	.
.	.	.	16ccc\JJ	.
=30	=30	=30	=30	=30
8f\L	.	.	16aa\LL	.
.	.	.	16cc\	.
8F\J	.	.	16ff\	.
.	.	.	16aa\JJ	.
8E\L	.	6 4 2	16ff\LL	.
.	.	.	16cc\	.
8e\J	.	.	16ff\	.
.	.	.	16aa\JJ	.
8d\L	.	6	16bb\LL	.
.	.	.	16dd\	.
8D\J	.	.	16ff\	.
.	.	.	16bb\JJ	.
8D\L	.	.	16ff\LL	.
.	.	.	16dd\	.
8d\J	.	.	16ff\	.
.	.	.	16bb\JJ	.
!!LO:LB:g=original
=31	=31	=31	=31	=31
8e\L	.	.	16gg\LL	.
.	.	.	16b\	.
8E\J	.	.	16ee\	.
.	.	.	16gg\JJ	.
8D\L	.	6 4 2	16ee\LL	.
.	.	.	16b\	.
8d\J	.	.	16ee\	.
.	.	.	16gg\JJ	.
8c\L	.	6	16aa\LL	.
.	.	.	16cc\	.
8C\J	.	.	16ee\	.
.	.	.	16aa\JJ	.
8C\L	.	.	16ee\LL	.
.	.	.	16cc\	.
8c\J	.	.	16ee\	.
.	.	.	16aa\JJ	.
=32	=32	=32	=32	=32
8d\L	.	.	16ff\LL	.
.	.	.	16a\	.
8D\J	.	.	16dd\	.
.	.	.	16ff\JJ	.
8C\L	.	6 4 2	16dd\LL	.
.	.	.	16a\	.
8c\J	.	.	16dd\	.
.	.	.	16ff\JJ	.
8B\L	.	6	16gg\LL	.
.	.	.	16b\	.
8BB\J	.	.	16dd\	.
.	.	.	16gg\JJ	.
8BB\L	.	.	16dd\LL	.
.	.	.	16b\	.
8B\J	.	.	16dd\	.
.	.	.	16gg\JJ	.
=33	=33	=33	=33	=33
8c\L	.	.	16ee\LL	.
.	.	.	16cc\	.
8C\J	.	.	16ee\	.
.	.	.	16gg\JJ	.
8C\L	.	.	16ee\LL	.
.	.	.	16cc\	.
8c\J	.	.	16ee\	.
.	.	.	16gg\JJ	.
8d\L	.	.	16ff\LL	.
.	.	.	16aa\	.
8D\J	.	.	16gg\	.
.	.	.	16aa\JJ	.
8D\L	.	.	16ff\LL	.
.	.	.	16gg\	.
8d\J	.	.	16ee\	.
.	.	.	16ff\JJ	.
=34	=34	=34	=34	=34
8d\L	.	.	16dd\LL	.
.	.	.	16ff\	.
8D\J	.	.	16ee\	.
.	.	.	16ff\JJ	.
8D\L	.	.	16dd\LL	.
.	.	.	16ee\	.
8d\J	.	.	16cc\	.
.	.	.	16dd\JJ	.
8d\L	.	6	16b\LL	.
.	.	.	16dd\	.
8D\J	.	.	16cc\	.
.	.	.	16dd\JJ	.
8D\L	.	.	16b\LL	.
.	.	.	16cc\	.
8d\J	.	.	16a\	.
.	.	.	16b\JJ	.
!!LO:LB:g=original
=35	=35	=35	=35	=35
8e\L	.	#	8g#X/L	.
8d\	.	.	8e/J	.
8c\	.	6	8r	.
8A\J	.	.	8ee\	.
8d\L	.	.	16ff\LL	.
.	.	.	16a\	.
8D\J	.	.	16dd\	.
.	.	.	16ff\JJ	.
8D\L	.	.	16aa\LL	.
.	.	.	16a\	.
8d\J	.	.	16dd\	.
.	.	.	16ff\JJ	.
=36	=36	=36	=36	=36
8c\L	.	6	16aa\LL	.
.	.	.	16a\	.
8C\J	.	.	16dd\	.
.	.	.	16ff#X\JJ	.
8C\L	.	6 4#| 2	16aa\LL	.
.	.	.	16a\	.
8c\J	.	.	16dd\	.
.	.	.	16ff#y\JJ	.
8B\L	.	6	16gg\LL	.
.	.	.	16b\	.
8BB\J	.	.	16dd\	.
.	.	.	16gg\JJ	.
8BB\L	.	.	16bb\LL	.
.	.	.	16b\	.
8B\J	.	.	16dd\	.
.	.	.	16gg\JJ	.
=37	=37	=37	=37	=37
8e\L	.	#	16bb\LL	.
.	.	.	16b\	.
8E\J	.	.	16ee\	.
.	.	.	16gg#X\JJ	.
8D\L	.	6 4#| 2	16bb\LL	.
.	.	.	16b\	.
8d\J	.	.	16ee\	.
.	.	.	16gg#y\JJ	.
8c\L	.	6	16aa\LL	.
.	.	.	16ee\	.
8A\J	.	.	16aa\	.
.	.	.	16ccc\JJ	.
8G#X\L	.	6	16bb\LL	.
.	.	.	16ee\	.
8E\J	.	.	16bb\	.
.	.	.	16ddd\JJ	.
=38	=38	=38	=38	=38
8AA\L	.	.	16ccc\LL	.
.	.	.	16ee\	.
8A\J	.	.	16ccc\	.
.	.	.	16eee\JJ	.
8B\L	.	.	16ddd\LL	.
.	.	.	16ee\	.
8A\J	.	.	16ddd\	.
.	.	.	16fff\JJ	.
8G#X\L	.	6	8eee\L	.
8e\	.	.	8ee\J	.
8e\	.	.	8r	.
8Gn\J	.	6	8ee\	.
!!LO:LB:g=original
=39	=39	=39	=39	=39
8F#X\L	.	7	(16aa\LL	.
.	.	.	16gg#X\)	.
8d\J	.	.	(16aa\	.
.	.	.	16gg#y\JJ)	.
8d\L	.	.	(16aa\LL	.
.	.	.	16gg#y\)	.
8Fn\J	.	6	&{16aa\	.
.	.	.	16bb\JJ&)	.
8E\L	.	#	16gg#y\LL	.
.	.	.	16b\	.
8D\J	.	4#| 2	16ee\	.
.	.	.	16gg#y\JJ	.
8C/L	.	6	16aa\LL	.
.	.	.	16cc\	.
8AA/J	.	.	16ee\	.
.	.	.	16aa\JJ	.
=40	=40	=40	=40	=40
8E/L	.	5 4	16aa\LL	.
.	.	.	16b\	.
8EE/J	.	.	16ee\	.
.	.	.	16aa\JJ	.
8E/L	.	#	16gg#X\LL	.
.	.	.	16b\	.
8EE/J	.	.	16ee\	.
.	.	.	16gg#y\JJ	.
8AA\L	.	.	8aa\L	.
8A\	.	.	8a\J	.
8c\	p	.	8r	.
8A\J	.	.	8ee\	p
=41	=41	=41	=41	=41
8d\L	.	.	16ff\LL	.
.	.	.	16a\	.
8D\J	.	.	16dd\	.
.	.	.	16ff\JJ	.
8D\L	.	.	16aa\LL	.
.	.	.	16a\	.
8d\J	.	.	16dd\	.
.	.	.	16ff\JJ	.
8c\L	.	6	16aa\LL	.
.	.	.	16a\	.
8C\J	.	.	16dd\	.
.	.	.	16ff#X\JJ	.
8C\L	.	4#| 2	16aa\LL	.
.	.	.	16a\	.
8c\J	.	.	16dd\	.
.	.	.	16ff#y\JJ	.
=42	=42	=42	=42	=42
8B\L	.	6	16gg\LL	.
.	.	.	16b\	.
8BB\J	.	.	16dd\	.
.	.	.	16gg\JJ	.
8BB\L	.	.	16bb\LL	.
.	.	.	16b\	.
8B\J	.	.	16dd\	.
.	.	.	16gg\JJ	.
8e\L	.	#	16bb\LL	.
.	.	.	16b\	.
8E\J	.	.	16ee\	.
.	.	.	16gg#X\JJ	.
8D\L	.	4#| 2	16bb\LL	.
.	.	.	16b\	.
8d\J	.	.	16ee\	.
.	.	.	16gg#y\JJ	.
!!LO:LB:g=original
=43	=43	=43	=43	=43
8c\L	.	6	16aa\LL	.
.	.	.	16ee\	.
8A\J	.	.	16aa\	.
.	.	.	16ccc\JJ	.
8G#X\L	.	6	16bb\LL	.
.	.	.	16ee\	.
8E\J	.	.	16bb\	.
.	.	.	16ddd\JJ	.
8AA\L	.	.	16ccc\LL	.
.	.	.	16ee\	.
8A\J	.	.	16ccc\	.
.	.	.	16eee\JJ	.
8B\L	.	.	16ddd\LL	.
.	.	.	16ee\	.
8A\J	.	.	16ddd\	.
.	.	.	16fff\JJ	.
=44	=44	=44	=44	=44
8G#X\L	.	6	8eee\L	.
8e\	.	.	8ee\J	.
8e\	.	.	8r	.
8Gn\J	.	6	8ee\	.
8F#X\L	.	7	(16aa\LL	.
.	.	.	16gg#X\)	.
8d\J	.	.	(16aa\	.
.	.	.	16gg#y\JJ)	.
8d\L	.	.	(16aa\LL	.
.	.	.	16gg#y\)	.
8Fn\J	.	6	(16aa\	.
.	.	.	16bb\JJ)	.
=45	=45	=45	=45	=45
8E\L	.	#	16gg#X\LL	.
.	.	.	16b\	.
8D\J	.	4#| 2	16ee\	.
.	.	.	16gg#y\JJ	.
8C/L	.	6	16aa\LL	.
.	.	.	16cc\	.
8AA/J	.	.	16ee\	.
.	.	.	16aa\JJ	.
8E/L	.	5 4	16aa\LL	.
.	.	.	16cc\	.
8EE/J	.	.	16ee\	.
.	.	.	16aa\JJ	.
8E/L	.	#	16gg#y\LL	.
.	.	.	16b\	.
8EE/J	.	.	16ee\	.
.	.	.	16gg#y\JJ	.
=46	=46	=46	=46	=46
4AA/	.	.	16aa\LL	.
.	.	.	16ee\	.
.	.	.	16cc\	.
.	.	.	16a\JJ	.
4r	.	.	16ee/LL	.
.	.	.	16cc/	.
.	.	.	16a/	.
.	.	.	16e/JJ	.
4AA/	.	.	16cc/LL	.
.	.	.	16a/	.
.	.	.	16e/	.
.	.	.	16c/JJ	.
4r	.	.	16a/LL	.
.	.	.	16e/	.
.	.	.	16c/	.
.	.	.	16e/JJ	.
=47	=47	=47	=47	=47
1AA/;	.	.	1A/;	.
==	==	==	==	==
*-	*-	*-	*-	*-
!!!SMS: RV 32 / Estienne Roger, Amsterdam [facs.]
!!!ENC: Fran Bennion; rev. 05/17 E. Correia
!!!END: 2005/01/03
!!!ONB: Converted from MuseData with musedata2hum on Sat May 11 12:07:53 2024
!!!YEM: (C) 2005, 2005 Center for Computer Assisted Research in the Humanities.
!!!system-decoration: [(s1,s2)]
!!!URL-info: https://wiki.ccarh.org/wiki/MuseData:_Antonio_Vivaldi#Op._2:_Sonate_a_violino_e_basso_per_il_cembalo
!!!URL-pdf: https://pdf.musedata.org/vivaldi-op02-no12.pdf#page=2 MuseData edition
!!!URL-pdf: http://conquest.imslp.info/files/imglnks/usimg/b/b7/IMSLP99075-PMLP183164-Vivaldi_-_Sonatas_Op2.pdf#page=44 Estienne Roger Amsterdam: Estienne Roger, No.2, n.d.[1711].
!!!URL-youtube: https://www.youtube.com/watch?v=SiijZmW9jKM&t=4030s L'Arte dell'Arco
!!!title: @{OTL}, mov. @{OMV}
!!!filter-chint: chint -mid
!!!EEV: 2024/05/11
!!!source-file: https://bitbucket.org/musedata/vivaldi/src/master/roger/op2/no12/stage2/02/01
!!!source-file: https://bitbucket.org/musedata/vivaldi/src/master/roger/op2/no12/stage2/02/02
